X:1
T:Title
%%score { ( 1 3 ) | ( 2 4 ) }
L:1/8
M:6/8
K:C
V:1 treble nm="Grand Piano"
V:3 treble 
V:2 bass 
V:4 bass 
V:1
 z3 z2[Q:1/4=87] [EG] | [EG]>[_E^F][=EG] [=FA]2 [FB] | [Ec]3 [CEG]2 [CGc] | %3
 [CAc]2 [CAc] [CGB]2 [CFA] |[M:5/8] [CEG]-[CEG]- [CEG]3 |[M:1/8] [CEG] | %6
[M:3/4] [B,DF]2 [B,EG] [DGB]2 [B,FA] | [CEG]3 [Ec]2 [Gc] | [GB]>[^FA] [GB] [Fc]2 [FA] | %9
[M:5/8] G-G- G3 |[M:1/8] G |[M:3/4] d4 z2 | [Ge]3 [Ec]2 [Ec] | cB c [^Fd]2 [Fe] |[M:5/8] d-d- d3 | %15
[M:1/8] d |[M:3/4] e2 d[Gc] [FB][Ec] | d2 c A2 c | %18
 cB A B2 G[Q:1/4=86][Q:1/4=84][Q:1/4=83][Q:1/4=82][Q:1/4=81][Q:1/4=79][Q:1/4=78][Q:1/4=77][Q:1/4=75] | %19
[M:5/8] [Ec]-[Ec]- [Ec]3[Q:1/4=74][Q:1/4=73][Q:1/4=72][Q:1/4=70][Q:1/4=69][Q:1/4=68][Q:1/4=67] |] %20
V:2
 z3 z2 [C,C] | [C,C]>[C,C][C,C] [C,C]2 [C,G,] | [C,G,]3 C,2 E, | F,2 F, F,2 F, | %4
[M:5/8] C,-C,- C,3 |[M:1/8] C, |[M:3/4] G,2 G, G,2 G,, | C,3 [C,G,]2 [E,C] | %8
 [D,D]2 [D,D] [D,A,]2 [D,C] |[M:5/8] [G,B,]-[G,B,]- [G,B,]3 |[M:1/8] [G,B,] | %11
[M:3/4][K:treble] F4 z2 | [C,C]3 [C,G,]2 [C,G,] | [A,E][A,D] [A,E] [D,A,]2 [D,C] | %14
[M:5/8][K:treble] [G,B,G]-[G,B,G]- [G,B,G]3 |[M:1/8] [G,B,G] | %16
[M:3/4] [CG]2 [G,B,F][K:bass][E,C] [D,G,][C,_B,] | [F,A,F]3 [F,CF]2[K:treble] [A,CF] | %18
 [G,DF][G,DF] [G,DF] [G,DF]2 [G,B,F] |[M:5/8][K:bass] [C,C]-[C,C]- [C,C]3 |] %20
V:3
 x6 | x6 | x6 | x6 |[M:5/8] x5 |[M:1/8] x |[M:3/4] x6 | x6 | x6 |[M:5/8] x5 |[M:1/8] x | %11
[M:3/4] z2 B,B, cd | x6 | x6 |[M:5/8] x5 |[M:1/8] x |[M:3/4] x6 | x6 | x6 |[M:5/8] x5 |] %20
V:4
 x6 | x6 | x6 | x6 |[M:5/8] x5 |[M:1/8] x |[M:3/4] x6 | x6 | x6 |[M:5/8] x5 |[M:1/8] x | %11
[M:3/4][K:treble] [G,B,]2 G,G, [G,CE][G,B,F] | x6 | x6 |[M:5/8][K:treble] x5 |[M:1/8] x | %16
[M:3/4] x3[K:bass] x3 | x5[K:treble] x | x6 |[M:5/8][K:bass] x5 |] %20

